src/standard/virtual-collaboration.svg

<svg xmlns="http://www.w3.org/2000/svg" viewBox="0 0 36 36">
  <path d="M12.87 24.29a3.86 3.86 0 1 0-4.74 0A7.12 7.12 0 0 0 3.37 31a.63.63 0 0 0 .63.62h13a.62.62 0 0 0 .62-.62 7.12 7.12 0 0 0-4.75-6.71Zm-5-3a2.63 2.63 0 0 1 5.25 0 2.63 2.63 0 0 1-5.25-.04Zm-3.21 9.09c.87-6.95 10.81-6.94 11.68 0Zm23.21-20.09a3.86 3.86 0 1 0-4.74 0A7.12 7.12 0 0 0 18.37 17a.63.63 0 0 0 .63.62h13a.62.62 0 0 0 .62-.62 7.12 7.12 0 0 0-4.75-6.71Zm-5-3a2.63 2.63 0 0 1 5.25 0 2.63 2.63 0 0 1-5.25-.04Zm-3.21 9.13c.87-6.95 10.81-6.94 11.68 0Zm-13.9 2.16a.63.63 0 0 0 .48-1.16.63.63 0 0 0-.48 1.16Zm.37-2.43a.63.63 0 0 0 .25-1.23.62.62 0 0 0-.73.49.64.64 0 0 0 .48.74Zm.63-2.4a.63.63 0 0 0 .5-1.15.63.63 0 0 0-.5 1.15Zm5.1-5.44a.62.62 0 0 0 .32-.09.63.63 0 1 0-.32.08Zm4.66-1.6a.62.62 0 1 0-.08-1.24.62.62 0 0 0 .08 1.24Zm-2.41.56a.62.62 0 1 0-.21-1.21.62.62 0 0 0 .21 1.21ZM9.88 9.79C11 9.7 10.37 8 9.45 8.71a.63.63 0 0 0 .43 1.08Zm-1.64 1.86a.61.61 0 0 0 .5-.26.63.63 0 1 0-.51.26Zm10.32-5.17c.57.58 1.47-.31.88-.88a.62.62 0 0 0-.88.88Zm11.88 13.08a.62.62 0 0 0-.88.88.62.62 0 0 0 .88-.88Zm-2.78 4.74a.62.62 0 0 0 1 .69.62.62 0 0 0-1-.69Zm-1.5 1.85c-.59.55.32 1.47.88.88s-.33-1.47-.88-.88Zm3.4-4.31a.62.62 0 0 0-.45 1.16.62.62 0 0 0 .45-1.16Zm-7.36 6.9a.63.63 0 0 0 .46 1.17.63.63 0 0 0-.46-1.17Zm2.11-1.09A.63.63 0 0 0 25 28.7a.63.63 0 0 0-.69-1.05Zm-3.87 1.91c-.57-.59-1.46.31-.88.88s1.44-.31.88-.88Z"/>
</svg>

<svg id="aa6f4e2f-bac1-4dce-bf60-62d73ef72ac1" data-name="Icon" xmlns="http://www.w3.org/2000/svg" viewBox="0 0 36 36">
  <title>Virtual collaboration icon - Black</title>
<desc>talk, work, together, virtual, social distance, communicate, connect, people and audiences</desc>
<metadata><?xpacket begin="﻿" id="W5M0MpCehiHzreSzNTczkc9d"?>
<x:xmpmeta xmlns:x="adobe:ns:meta/" x:xmptk="Adobe XMP Core 8.0-c001 1.000000, 0000/00/00-00:00:00        ">
   <rdf:RDF xmlns:rdf="http://www.w3.org/1999/02/22-rdf-syntax-ns#">
      <rdf:Description rdf:about=""
            xmlns:xmp="http://ns.adobe.com/xap/1.0/"
            xmlns:dc="http://purl.org/dc/elements/1.1/"
            xmlns:cq="http://www.day.com/jcr/cq/1.0"
            xmlns:tiff="http://ns.adobe.com/tiff/1.0/">
         <xmp:rhcc-effective-on>2023-12-08T17:34:09.164Z</xmp:rhcc-effective-on>
         <xmp:rhcc-metadata-complete-moderator>pending</xmp:rhcc-metadata-complete-moderator>
         <xmp:rhcc-translation-id>TRA1e9e363f-0bb7-4dd8-b36b-84a40582d042</xmp:rhcc-translation-id>
         <xmp:brand-content-type>Icon</xmp:brand-content-type>
         <xmp:CreateDate>2023-12-08T17:34:09.164Z</xmp:CreateDate>
         <xmp:rhcc-effective-on-set-on-upload>true</xmp:rhcc-effective-on-set-on-upload>
         <xmp:rhcc-metadata-complete-uploader>pending</xmp:rhcc-metadata-complete-uploader>
         <xmp:rhcc-file-last-modified>2023-12-08T17:34:17.170Z</xmp:rhcc-file-last-modified>
         <xmp:rhcc-audience>rhcc-audience:internal</xmp:rhcc-audience>
         <xmp:rhcc-rights-restricted>no</xmp:rhcc-rights-restricted>
         <xmp:brand-content-subtype>Icon</xmp:brand-content-subtype>
         <xmp:rhcc-derivative-id>DER1e9e363f-0bb7-4dd8-b36b-84a40582d042</xmp:rhcc-derivative-id>
         <xmp:brand-logo-color>Black</xmp:brand-logo-color>
         <xmp:rhcc-notify-portal-subscribers-on-change>yes</xmp:rhcc-notify-portal-subscribers-on-change>
         <dc:format>image/svg+xml</dc:format>
         <dc:modified>2024-02-09T20:23:11.849Z</dc:modified>
         <dc:title>
            <rdf:Alt>
               <rdf:li xml:lang="x-default">Virtual collaboration icon - Black</rdf:li>
            </rdf:Alt>
         </dc:title>
         <dc:description>
            <rdf:Alt>
               <rdf:li xml:lang="x-default">talk, work, together, virtual, social distance, communicate, connect, people and audiences</rdf:li>
            </rdf:Alt>
         </dc:description>
         <cq:lastReplicationAction_scene7>Activate</cq:lastReplicationAction_scene7>
         <cq:lastReplicationAction_publish>Activate</cq:lastReplicationAction_publish>
         <cq:lastReplicated_publish>2024-02-09T22:03:49.300Z</cq:lastReplicated_publish>
         <cq:lastReplicatedBy>workflow-process-service</cq:lastReplicatedBy>
         <cq:lastReplicationAction>Activate</cq:lastReplicationAction>
         <cq:lastReplicatedBy_publish>workflow-process-service</cq:lastReplicatedBy_publish>
         <cq:isDelivered>true</cq:isDelivered>
         <cq:lastReplicated>2024-02-09T22:03:49.300Z</cq:lastReplicated>
         <cq:lastReplicatedBy_scene7>workflow-process-service</cq:lastReplicatedBy_scene7>
         <cq:lastReplicated_scene7>2024-02-09T22:03:49.300Z</cq:lastReplicated_scene7>
         <tiff:ImageLength>36</tiff:ImageLength>
         <tiff:ImageWidth>36</tiff:ImageWidth>
      </rdf:Description>
   </rdf:RDF>
</x:xmpmeta>
                                                                                                    
                                                                                                    
                                                                                                    
                                                                                                    
                                                                                                    
                                                                                                    
                                                                                                    
                                                                                                    
                                                                                                    
                                                                                                    
                                 
<?xpacket end="w"?></metadata>
<g>
    <path d="M12.87,24.29a3.86,3.86,0,1,0-4.74,0A7.12,7.12,0,0,0,3.37,31a.63.63,0,0,0,.63.62H17a.62.62,0,0,0,.62-.62A7.12,7.12,0,0,0,12.87,24.29Zm-5-3a2.63,2.63,0,0,1,5.25,0A2.63,2.63,0,0,1,7.87,21.25ZM4.66,30.38c.87-6.95,10.81-6.94,11.68,0Z"/>
    <path d="M27.87,10.29a3.86,3.86,0,1,0-4.74,0A7.12,7.12,0,0,0,18.37,17a.63.63,0,0,0,.63.62H32a.62.62,0,0,0,.62-.62A7.12,7.12,0,0,0,27.87,10.29Zm-5-3a2.63,2.63,0,0,1,5.25,0A2.63,2.63,0,0,1,22.87,7.25Zm-3.21,9.13c.87-6.95,10.81-6.94,11.68,0Z"/>
    <path d="M5.76,18.58a.63.63,0,0,0,.48-1.16A.63.63,0,0,0,5.76,18.58Z"/>
    <path d="M6.13,16.15a.63.63,0,0,0,.25-1.23.62.62,0,0,0-.73.49h0A.64.64,0,0,0,6.13,16.15Z"/>
    <path d="M6.76,13.75a.63.63,0,0,0,.5-1.15A.63.63,0,0,0,6.76,13.75Z"/>
    <path d="M11.86,8.31a.62.62,0,0,0,.32-.09h0a.63.63,0,1,0-.32.08Z"/>
    <path d="M16.52,6.71a.62.62,0,1,0-.08-1.24A.62.62,0,0,0,16.52,6.71Z"/>
    <path d="M14.11,7.27a.62.62,0,1,0-.21-1.21A.62.62,0,0,0,14.11,7.27Z"/>
    <path d="M9.88,9.79C11,9.7,10.37,8,9.45,8.71A.63.63,0,0,0,9.88,9.79Z"/>
    <path d="M8.24,11.65a.61.61,0,0,0,.5-.26h0a.63.63,0,1,0-.51.26Z"/>
    <path d="M18.56,6.48c.57.58,1.47-.31.88-.88A.62.62,0,0,0,18.56,6.48Z"/>
    <path d="M30.44,19.56a.62.62,0,0,0-.88.88A.62.62,0,0,0,30.44,19.56Z"/>
    <path d="M27.66,24.3a.62.62,0,0,0,1,.69A.62.62,0,0,0,27.66,24.3Z"/>
    <path d="M26.16,26.15c-.59.55.32,1.47.88.88S26.71,25.56,26.16,26.15Z"/>
    <path d="M29.56,21.84A.62.62,0,0,0,29.11,23,.62.62,0,0,0,29.56,21.84Z"/>
    <path d="M22.2,28.74a.63.63,0,0,0,.46,1.17A.63.63,0,0,0,22.2,28.74Z"/>
    <path d="M24.31,27.65A.63.63,0,0,0,25,28.7.63.63,0,0,0,24.31,27.65Z"/>
    <path d="M20.44,29.56c-.57-.59-1.46.31-.88.88S21,30.13,20.44,29.56Z"/>
  </g>
</svg>
